!!!!SEGMENT: pl-kk--kk-i-7--045-004_luython-carl--missa-agnus-dei.krn
!!!cenid: 16xx:847
!!!COM: Luython, Carl
!!!COM-rismid: pe30012976
!!!CDT: ~1557-1620
!!!CNT:
!!!OPR: Missa
!!!OTL: Agnus Dei
!!!OMV: 004
!!!PDT:
!!!AGN: Sacred; Mass
!!!SMS-siglum: PL-Kk
!!!SMS-shelfmark: Kk.I.7
!!!SMS-shelfwork: 045-004 M
!!!SMS-variant:
!!!SMS-altvar:
!!!NIFC-rismid: 300258122
!!!URL-scan: http://repozytorium.nifc.pl/skany/pl-kk-nut--i-7
!!!ONB-nifc: UWAGA: C (skan 0039-0040, s.73-75), A (0123-0124, s.67-69), T(0199-0200, s.63-65), B(0289-0290, s.65-67). Części Mszy: 1. Kyrie, 2. Et in terra, 3. Sanctus, 4. Agnus Dei
!!!key:
**kern	**text	**fba	**text	**kern	**text	**text	**kern	**text	**kern	**text	**text
*part4	*part4	*	*part4	*part3	*part3	*part3	*part2	*part2	*part1	*part1	*part1
*staff4	*staff4	*	*staff4	*staff3	*staff3	*staff3	*staff2	*staff2	*staff1	*staff1	*staff1
*Ibass	*	*	*	*Itenor	*	*	*Ialto	*	*Isoprn	*	*
*I"BASSVS.	*	*	*	*I"TENOR.	*	*	*I"ALTVS.	*	*I"CANTVS.	*	*
*I'B	*	*	*	*I'T	*	*	*I'A	*	*I'S	*	*
*clefF4	*	*	*	*clefC4	*	*	*clefC3	*	*clefC1	*	*
*k[]	*	*	*	*k[]	*	*	*k[]	*	*k[]	*	*
*d:	*	*	*	*d:	*	*	*d:	*	*d:	*	*
*M2/1	*	*	*	*M2/1	*	*	*M2/1	*	*M2/1	*	*
*met(c|)	*	*	*	*met(c|)	*	*	*met(c|)	*	*met(c|)	*	*
=1	=1	=1	=1	=1	=1	=1	=1	=1	=1	=1	=1
!	!	!	!	!LO:TX:a:i:t=T.	!	!	!LO:TX:a:i:t=T.	!	!LO:TX:a:i:t=T.	!	!
!LO:TX:t=P:problem=przed kluczem inicjał A	!	!	!	!LO:TX:t=P:problem=przed kluczem inicjał A	!	!	!LO:TX:t=P:problem=przed kluczem inicjał A	!	!LO:TX:t=P:problem=przed kluczem inicjał A	!	!
!	!	!	!	!LO:TX:t=P:problem=kreska pseudotaktowa	!	!	!	!	!	!	!
00r	.	.	.	00r	.	.	1d\	A-	2r	.	.
.	.	.	.	.	.	.	.	.	1a\	A-	.
*	*	*	*	*	*	*	*2\right	*	*	*	*
.	.	.	.	.	.	.	2c#X\	-gnus	.	.	.
!	!	!	!	!	!	!	!	!	!LO:TX:t=P:problem=kreska pseudotaktowa	!	!
.	.	.	.	.	.	.	1f\	De-	2d/	-gnus	.
=2-	=2-	=2-	=2-	=2-	=2-	=2-	=2-	=2-	=2-	=2-	=2-
*	*	*	*	*	*	*	*	*	*2\right	*	*
.	.	.	.	.	.	.	.	.	2a\	De-	.
.	.	.	.	.	.	.	4e\	.	4g/	.	.
!	!	!	!	!	!	!	!LO:TX:t=P:problem=kreska pseudotaktowa	!	!LO:TX:t=P:problem=kreska pseudotaktowa	!	!
.	.	.	.	.	.	.	4d\	.	4f/	.	.
.	.	.	.	.	.	.	4e\	.	4g/	.	.
.	.	.	.	.	.	.	4d\	.	4f/	.	.
.	.	.	.	.	.	.	2.d\	.	4f/	.	.
.	.	.	.	.	.	.	.	.	8e/L	.	.
.	.	.	.	.	.	.	.	.	8d/J	.	.
=3-	=3-	=3-	=3-	=3-	=3-	=3-	=3-	=3-	=3-	=3-	=3-
!LO:TX:t=P:problem=kreska pseudotaktowa	!	!	!	!	!	!	!	!	!	!	!
1r	.	.	.	1.A\	A-	.	.	.	1e/	.	.
.	.	.	.	.	.	.	8c#X/L	.	.	.	.
.	.	.	.	.	.	.	8B/J	.	.	.	.
!	!	!	!	!	!	!	!LO:TX:t=P:problem=kreska pseudotaktowa	!	!	!	!
.	.	.	.	.	.	.	2c#X\	.	.	.	.
!	!	!	!	!	!	!	!LO:TX:t=P:problem=kreska pseudotaktowa	!	!LO:TX:t=P:problem=kreska pseudotaktowa	!	!
1.D\	A-	.	.	.	.	.	0d\	-i,	1d/	-i.	.
!	!	!	!	!LO:TX:t=P:problem=kreska pseudotaktowa	!	!	!	!	!	!	!
.	.	.	.	2F#X/	-gnus	.	.	.	.	.	.
=4-	=4-	=4-	=4-	=4-	=4-	=4-	=4-	=4-	=4-	=4-	=4-
.	.	.	.	1.B-X\	De-	.	.	.	0r	.	.
!LO:TX:t=P:problem=kreska pseudotaktowa	!	!	!	!	!	!	!	!	!	!	!
2GG/	-gnus	.	.	.	.	.	.	.	.	.	.
*2\right	*	*	*	*	*	*	*	*	*	*	*
2.D\	De-	.	.	.	.	.	2r	.	.	.	.
.	.	.	.	4A/	.	.	1d\	A-	.	.	.
!LO:TX:t=P:problem=kreska pseudotaktowa	!	!	!	!LO:TX:t=P:problem=kreska pseudotaktowa	!	!	!	!	!	!	!
4E\	.	.	.	4G/	.	.	.	.	.	.	.
=5-	=5-	=5-	=5-	=5-	=5-	=5-	=5-	=5-	=5-	=5-	=5-
!	!	!	!	!	!	!	!	!	!LO:TX:t=P:problem=kreska pseudotaktowa	!	!
4F\	.	.	.	4A\	.	.	.	.	1r	.	.
4G\	.	.	.	4B-y\	.	.	.	.	.	.	.
!	!	!	!	!	!	!	!LO:TX:t=P:problem=kreska pseudotaktowa	!	!	!	!
4A\	.	.	.	4c\	.	.	2cny/	-gnus	.	.	.
!	!	!	!	!LO:TX:t=P:problem=kreska pseudotaktowa	!	!	!	!	!	!	!
8G\L	.	.	.	4d\	.	.	.	.	.	.	.
!LO:TX:t=P:problem=kreska pseudotaktowa	!	!	!	!	!	!	!	!	!	!	!
8F\J	.	.	.	.	.	.	.	.	.	.	.
4G\	.	.	.	4e\	.	.	2B/	De-	2r	.	.
4F\	.	.	.	4d\	.	.	.	.	.	.	.
!	!	!	!	!	!	!	!LO:TX:t=P:problem=kreska pseudotaktowa	!	!	!	!
*	*	*	*	*2\right	*	*	*	*	*	*	*
4F\	.	.	.	2.d\	.	.	2A/	-i	1a\	A-	.
8E\L	.	.	.	.	.	.	.	.	.	.	.
!LO:TX:t=P:problem=kreska pseudotaktowa	!	!	!	!	!	!	!	!	!	!	!
8D\J	.	.	.	.	.	.	.	.	.	.	.
=6-	=6-	=6-	=6-	=6-	=6-	=6-	=6-	=6-	=6-	=6-	=6-
!	!	!	!	!	!	!	!LO:TX:t=P:problem=kreska pseudotaktowa	!	!	!	!
1E\	.	.	.	.	.	.	1e\	A-	.	.	.
.	.	.	.	8c#X\L	.	.	.	.	.	.	.
.	.	.	.	8Bny\J	.	.	.	.	.	.	.
!	!	!	!	!	!	!	!	!	!LO:TX:t=P:problem=kreska pseudotaktowa	!	!
.	.	.	.	2c#\	.	.	.	.	2g\	gnus	.
!LO:TX:t=P:problem=kreska pseudotaktowa	!	!	!	!LO:TX:t=P:problem=kreska pseudotaktowa	!	!	!	!	!	!	!
1D\	-i	.	.	1d\	-i,	.	2A/	-gn(us)	2.f/	De-	.
.	.	.	.	.	.	.	4A/	De-	.	.	.
!	!	!	!	!	!	!	!LO:TX:t=P:problem=kreska pseudotaktowa	!	!	!	!
.	.	.	.	.	.	.	4B/	.	8e/L	.	.
.	.	.	.	.	.	.	.	.	8d/J	.	.
=7-	=7-	=7-	=7-	=7-	=7-	=7-	=7-	=7-	=7-	=7-	=7-
!LO:TX:t=P:problem=kreska pseudotaktowa	!	!	!	!	!	!	!	!	!	!	!
0r	.	.	.	0r	.	.	4c\	.	4e/	.	.
.	.	.	.	.	.	.	4d\	.	4f/	.	.
.	.	.	.	.	.	.	4e\	.	4g/	.	.
!	!	!	!	!	!	!	!	!	!LO:TX:t=P:problem=kreska pseudotaktowa	!	!
.	.	.	.	.	.	.	8d\L	.	4a/	.	.
!	!	!	!	!	!	!	!LO:TX:t=P:problem=kreska pseudotaktowa	!	!	!	!
.	.	.	.	.	.	.	8c\J	.	.	.	.
.	.	.	.	.	.	.	4d/	.	4bn\	.	.
.	.	.	.	.	.	.	4c/	.	4a\	.	.
.	.	.	.	.	.	.	4c/	.	2.a\	.	.
.	.	.	.	.	.	.	8B/L	.	.	.	.
!	!	!	!	!	!	!	!LO:TX:t=P:problem=kreska pseudotaktowa	!	!	!	!
.	.	.	.	.	.	.	8A/J	.	.	.	.
=8-	=8-	=8-	=8-	=8-	=8-	=8-	=8-	=8-	=8-	=8-	=8-
!	!	!	!	!LO:TX:t=P:problem=kreska pseudotaktowa	!	!	!	!	!	!	!
2r	.	.	.	1r	.	.	1B/	.	.	.	.
.	.	.	.	.	.	.	.	.	8g#X/L	.	.
!	!	!	!	!	!	!	!	!	!LO:SIC:v:s=8f#	!	!
.	.	.	.	.	.	.	.	.	8f/J	.	.
!LO:TX:t=P:problem=kreska pseudotaktowa	!	!	!	!	!	!	!	!	!	!	!
2E\	qui	.	.	.	.	.	.	.	2g#\	.	.
!	!	!	!	!	!	!	!LO:TX:t=P:problem=kreska pseudotaktowa	!	!LO:TX:t=P:problem=kreska pseudotaktowa	!	!
1F\	tol-	.	.	2r	.	.	1A/	-i	1a\	-i,	.
!	!	!	!	!LO:TX:t=P:problem=kreska pseudotaktowa	!	!	!	!	!	!	!
.	.	.	.	2A\	qui	.	.	.	.	.	.
=9-	=9-	=9-	=9-	=9-	=9-	=9-	=9-	=9-	=9-	=9-	=9-
!	!	!	!	!	!	!	!LO:TX:t=P:problem=kreska pseudotaktowa	!	!	!	!
2E,<\	-lis	.	.	1cny\	tol-	.	00r	.	0r	.	.
!LO:TX:t=P:problem=kreska pseudotaktowa	!	!	!	!	!	!	!	!	!	!	!
2A\	pec-	.	.	.	.	.	.	.	.	.	.
2.G\	-ca-	.	.	2B\	-lis	.	.	.	.	.	.
!	!	!	!	!LO:TX:t=P:problem=kreska pseudotaktowa	!	!	!	!	!	!	!
.	.	.	.	2e\	pec-	.	.	.	.	.	.
8F\L	-ta	.	.	.	.	.	.	.	.	.	.
!LO:TX:t=P:problem=kreska pseudotaktowa	!	!	!	!	!	!	!	!	!	!	!
8E\J	.	.	.	.	.	.	.	.	.	.	.
=10-	=10-	=10-	=10-	=10-	=10-	=10-	=10-	=10-	=10-	=10-	=10-
!	!	!	!	!	!	!	!	!	!LO:TX:t=P:problem=kreska pseudotaktowa	!	!
2F\	mun-	.	.	2.d\	-ca-	.	.	.	1r	.	.
!LO:TX:t=P:problem=kreska pseudotaktowa	!	!	!	!	!	!	!	!	!	!	!
2G\	.	.	.	.	.	.	.	.	.	.	.
.	.	.	.	8c\L	.	.	.	.	.	.	.
!	!	!	!	!LO:TX:t=P:problem=kreska pseudotaktowa	!	!	!	!	!	!	!
.	.	.	.	8B\J	.	.	.	.	.	.	.
!	!	!	!	!	!	!	!	!	!LO:TX:t=P:problem=kreska pseudotaktowa	!	!
1E\	.	7	.	2c\	.	.	.	.	1e/	Qui	.
.	.	6	.	2B\	-ta	.	.	.	.	.	.
=11-	=11-	=11-	=11-	=11-	=11-	=11-	=11-	=11-	=11-	=11-	=11-
!LO:TX:t=P:problem=kreska pseudotaktowa	!	!	!	!	!	!	!	!	!LO:TX:t=P:problem=kreska pseudotaktowa	!	!
1D\	-di	.	.	1d\	mun-	.	1A/	qui	1f/	tol-	.
!	!	!	!	!	!	!	!LO:TX:t=P:problem=kreska pseudotaktowa	!	!	!	!
!LO:TX:t=P:problem=kreska pseudotaktowa	!	!	!	!LO:TX:t=P:problem=kreska pseudotaktowa	!	!	!LO:SIC:v:t=custos B	!	!	!	!
0r	.	.	.	1A\	-di.	.	1c\	tol-	2e/	-lis	.
!	!	!	!	!	!	!	!	!	!LO:TX:t=P:problem=kreska pseudotaktowa	!	!
!	!	!	!	!	!	!	!	!	!LO:SIC:v:t=custos g	!	!
.	.	.	.	.	.	.	.	.	2a\	pec-	.
=12-	=12-	=12-	=12-	=12-	=12-	=12-	=12-	=12-	=12-	=12-	=12-
!	!	!	!	!LO:TX:t=P:problem=kreska pseudotaktowa	!	!	!	!	!	!	!
.	.	.	.	0r	.	.	2B/	-lis	2.gny/	-ca-	.
.	.	.	.	.	.	.	2e\	pec-	.	.	.
.	.	.	.	.	.	.	.	.	8f/L	.	.
.	.	.	.	.	.	.	.	.	8e/J	.	.
1D\	mi-	.	Do-	.	.	.	2.d\	-ca-	4f/	.	.
.	.	.	.	.	.	.	.	.	4d/	-ta	.
.	.	.	.	.	.	.	.	.	2f/	mun-	.
.	.	.	.	.	.	.	8c/L	.	.	.	.
!	!	!	!	!	!	!	!LO:TX:t=P:problem=kreska pseudotaktowa	!	!	!	!
.	.	.	.	.	.	.	8B/J	.	.	.	.
=13-	=13-	=13-	=13-	=13-	=13-	=13-	=13-	=13-	=13-	=13-	=13-
!	!	!	!	!	!	!	!	!	!LO:TX:t=P:problem=kreska pseudotaktowa	!	!
2AA/	-se-	.	-na	1A\	mi-	Do-	4c/	-ta	1e/	-di,	.
.	.	.	.	.	.	.	4A/	.	.	.	.
1A\	-re-	.	No-	.	.	.	2c/	mun-	.	.	.
!	!	!	!	!	!	!	!LO:TX:t=P:problem=kreska pseudotaktowa	!	!LO:TX:t=P:problem=kreska pseudotaktowa	!	!
.	.	.	.	2E/	-se-	-na	1B/	-di	1r	.	.
!LO:TX:t=P:problem=kreska pseudotaktowa	!	!	!	!	!	!	!	!	!	!	!
2G\	-re	.	-bis	1e\	-re-	no-	.	.	.	.	.
=14-	=14-	=14-	=14-	=14-	=14-	=14-	=14-	=14-	=14-	=14-	=14-
!	!	!	!	!	!	!	!LO:TX:t=P:problem=kreska pseudotaktowa	!	!	!	!
2.F\	no-	.	pa-	.	.	.	0r	.	1a\	mi-	Do-
!	!	!	!	!LO:TX:t=P:problem=kreska pseudotaktowa	!	!	!	!	!	!	!
.	.	.	.	2d\	-re	-bis	.	.	.	.	.
4G\	.	.	.	.	.	.	.	.	.	.	.
4A\	.	.	.	2.c\	no-	pa-	.	.	2e/	-ſe-	-na
4G\	.	.	.	.	.	.	.	.	.	.	.
4F\	.	.	.	.	.	.	.	.	1a\	-re-	no-
!	!	!	!	!LO:TX:t=P:problem=kreska pseudotaktowa	!	!	!	!	!	!	!
8E\L	.	.	.	4d\	.	.	.	.	.	.	.
!LO:TX:t=P:problem=kreska pseudotaktowa	!	!	!	!	!	!	!	!	!	!	!
8D\J	.	.	.	.	.	.	.	.	.	.	.
=15-	=15-	=15-	=15-	=15-	=15-	=15-	=15-	=15-	=15-	=15-	=15-
4C/	.	.	.	4e\	.	.	2r	.	.	.	.
8BB/L	.	.	.	8d\L	.	.	.	.	.	.	.
8AA/J	.	.	.	8c\J	.	.	.	.	.	.	.
!	!	!	!	!	!	!	!LO:TX:t=P:problem=kreska pseudotaktowa	!	!LO:TX:t=P:problem=kreska pseudotaktowa	!	!
4BB/	.	.	.	1d\	.	.	2d\	mi-	2g\	-re	-bis
4C/	.	.	.	.	.	.	.	.	.	.	.
1D\	.	.	.	.	.	.	2A/	-ſe-	2.f/	no-	pa-
!	!	!	!	!LO:TX:t=P:problem=kreska pseudotaktowa	!	!	!	!	!	!	!
.	.	.	.	2A,</	-bis	-cem.	1d\	-re-	.	.	.
.	.	.	.	.	.	.	.	.	4g/	.	.
=16-	=16-	=16-	=16-	=16-	=16-	=16-	=16-	=16-	=16-	=16-	=16-
!LO:TX:t=P:problem=kreska pseudotaktowa	!	!	!	!	!	!	!	!	!	!	!
1AA/	-bis.	.	-cem	1e\	mi-	Do-	.	.	2.a\	.	.
!	!	!	!	!	!	!	!LO:TX:t=P:problem=kreska pseudotaktowa	!	!	!	!
.	.	.	.	.	.	.	2c\	-re	.	.	.
!	!	!	!	!	!	!	!	!	!LO:TX:t=P:problem=kreska pseudotaktowa	!	!
.	.	.	.	.	.	.	.	.	4b\	.	.
!LO:TX:t=P:problem=kreska pseudotaktowa	!	!	!	!	!	!	!	!	!	!	!
1r	.	.	.	2A/	-ſe-	-na	2.f\	no-	4cc\	.	.
.	.	.	.	.	.	.	.	.	4b\	.	.
.	.	.	.	1d\	-re-	no-	.	.	4a\	.	.
!	!	!	!	!	!	!	!	!	!LO:TX:t=P:problem=kreska pseudotaktowa	!	!
.	.	.	.	.	.	.	4e\	.	4g\	.	.
=17-	=17-	=17-	=17-	=17-	=17-	=17-	=17-	=17-	=17-	=17-	=17-
2r	.	.	.	.	.	.	2d\	.	2f/	.	.
!LO:TX:t=P:problem=kreska pseudotaktowa	!	!	!	!LO:TX:t=P:problem=kreska pseudotaktowa	!	!	!LO:TX:t=P:problem=kreska pseudotaktowa	!	!	!	!
2A\	mi-	.	Do-	2c\	-re	-bis	2A/	-bis	2e/	.	.
2D/	-ſe-	.	-na	2.B-X\	no-	pa-	2r	.	2f/	.	.
!	!	!	!	!	!	!	!	!	!LO:TX:t=P:problem=kreska pseudotaktowa	!	!
1G\	-re-	.	no-	.	.	.	1d\	mi-	2d/	-bis,	-cem.
!	!	!	!	!LO:TX:t=P:problem=kreska pseudotaktowa	!	!	!	!	!	!	!
.	.	.	.	4c\	.	.	.	.	.	.	.
=18-	=18-	=18-	=18-	=18-	=18-	=18-	=18-	=18-	=18-	=18-	=18-
.	.	.	.	4d\	.	.	.	.	2g\	mi-	Do-
.	.	.	.	4e\	.	.	.	.	.	.	.
!LO:TX:t=P:problem=kreska pseudotaktowa	!	!	!	!	!	!	!LO:TX:t=P:problem=kreska pseudotaktowa	!	!	!	!
2F\	-re	.	-bis	4f\	.	.	2A/	-ſe-	2a\	-ſe-	-na
!	!	!	!	!LO:TX:t=P:problem=kreska pseudotaktowa	!	!	!	!	!	!	!
.	.	.	.	4e\	.	.	.	.	.	.	.
2.BB-X/	no-	.	pa-	4d\	.	.	2.d\	-re-	2.b-X\	-re-	no-
.	.	.	.	4c\	.	.	.	.	.	.	.
.	.	.	.	1B-X\	.	.	.	.	.	.	.
!LO:TX:t=P:problem=kreska pseudotaktowa	!	!	!	!	!	!	!LO:TX:t=P:problem=kreska pseudotaktowa	!	!	!	!
4C/	.	.	.	.	.	.	4e\	-re	8a\L	.	.
!	!	!	!	!	!	!	!	!	!LO:TX:t=P:problem=kreska pseudotaktowa	!	!
.	.	.	.	.	.	.	.	.	8g\J	.	.
=19-	=19-	=19-	=19-	=19-	=19-	=19-	=19-	=19-	=19-	=19-	=19-
2.D\	.	.	.	.	.	.	2.f\	no-	4f/	.	.
.	.	.	.	.	.	.	.	.	4g/	-re	.
!	!	!	!	!LO:TX:t=P:problem=kreska pseudotaktowa	!	!	!	!	!	!	!
.	.	.	.	[<2A\	.	.	.	.	4a\	.	.
8C/L	.	.	.	.	.	.	8e\L	.	4b-\	.	-bis
!LO:TX:t=P:problem=kreska pseudotaktowa	!	!	!	!	!	!	!LO:TX:t=P:problem=kreska pseudotaktowa	!	!	!	!
8BB-X/J	.	.	.	.	.	.	8d\J	.	.	.	.
!	!	!	!	!LO:N:xstem:cue	!	!	!	!	!	!	!
0AA/	.	.	.	4A\]	.	.	4e\	-bis	4cc\	no-	pa-
.	.	.	.	4G/	.	.	2e\	no-	4b-\	.	.
!	!	!	!	!LO:TX:t=P:problem=kreska pseudotaktowa	!	!	!	!	!	!	!
.	.	.	.	2Fny/	.	.	.	.	4a\	.	.
!	!	!	!	!	!	!	!LO:TX:t=P:problem=kreska pseudotaktowa	!	!LO:TX:t=P:problem=kreska pseudotaktowa	!	!
.	.	.	.	.	.	.	[<4d\	.	4g\	.	.
=20-	=20-	=20-	=20-	=20-	=20-	=20-	=20-	=20-	=20-	=20-	=20-
.	.	.	.	1E/	.	.	4d\]	.	1a\	.	.
.	.	.	.	.	.	.	8c#X/L	.	.	.	.
.	.	.	.	.	.	.	8B/J	.	.	.	.
.	.	.	.	.	.	.	2c#/	.	.	.	.
!LO:N:vis=0	!	!	!	!LO:N:vis=0	!	!	!LO:N:vis=0	!	!LO:N:vis=0	!	!
1D\;	-bis	.	-cem.	1D/;	-bis.	-cem	1d\;	-bis.	1f#X/;	-bis.	-cem.
=21||	=21||	=21||	=21||	=21||	=21||	=21||	=21||	=21||	=21||	=21||	=21||
*M2/1	*	*	*	*M2/1	*	*	*M2/1	*	*M2/1	*	*
*met(c|)	*	*	*	*met(c|)	*	*	*met(c|)	*	*met(c|)	*	*
!LO:TX:a:i:t=Agnus 2dum Tacet	!	!	!	!LO:TX:b:t=à 3.	!	!	!	!	!LO:TX:t=P:problem=kreska pseudotaktowa	!	!
!	!	!	!	!LO:TX:t=P:problem=kreska pseudotaktowa	!	!	!	!	!	!	!
0ryy	.	.	.	00r	.	.	1d\	A-	0r	.	.
.	.	.	.	.	.	.	2A/	-gn(us)	.	.	.
!	!	!	!	!	!	!	!LO:TX:t=P:problem=kreska pseudotaktowa	!	!	!	!
.	.	.	.	.	.	.	[<2d\	De-	.	.	.
=22-	=22-	=22-	=22-	=22-	=22-	=22-	=22-	=22-	=22-	=22-	=22-
!	!	!	!	!	!	!	!LO:N:xstem:cue	!	!	!	!
0ryy	.	.	.	.	.	.	4d\]	.	1a\	A-	.
.	.	.	.	.	.	.	4c\	.	.	.	.
.	.	.	.	.	.	.	4d\	.	.	.	.
!	!	!	!	!	!	!	!LO:TX:t=P:problem=kreska pseudotaktowa	!	!	!	!
.	.	.	.	.	.	.	4e\	.	.	.	.
.	.	.	.	.	.	.	2f\	.	2d/	-gn(us)	.
!	!	!	!	!	!	!	!LO:TX:t=P:problem=kreska pseudotaktowa	!	!	!	!
.	.	.	.	.	.	.	2d\	.	2.a\	De-	.
=23-	=23-	=23-	=23-	=23-	=23-	=23-	=23-	=23-	=23-	=23-	=23-
0ryy	.	.	.	2r	.	.	4A/	.	.	.	.
.	.	.	.	.	.	.	4B/	.	4g\	.	.
.	.	.	.	1A\	A-	.	4c/	.	4a\	.	.
!	!	!	!	!	!	!	!	!	!LO:TX:t=P:problem=kreska pseudotaktowa	!	!
.	.	.	.	.	.	.	4d/	.	4b\	.	.
.	.	.	.	.	.	.	2e\	.	2cc\	.	.
!	!	!	!	!LO:TX:t=P:problem=kreska pseudotaktowa	!	!	!LO:TX:t=P:problem=kreska pseudotaktowa	!	!LO:TX:t=P:problem=kreska pseudotaktowa	!	!
.	.	.	.	2D/	-gnus	.	2f\	.	2a\	-i	.
=24-	=24-	=24-	=24-	=24-	=24-	=24-	=24-	=24-	=24-	=24-	=24-
0ryy	.	.	.	2.A\	De-	.	4e\	.	2.cc\	A-	.
.	.	.	.	.	.	.	4d\	.	.	.	.
.	.	.	.	.	.	.	1e\	.	.	.	.
!	!	!	!	!LO:TX:t=P:problem=kreska pseudotaktowa	!	!	!	!	!LO:TX:t=P:problem=kreska pseudotaktowa	!	!
.	.	.	.	4G/	.	.	.	.	4b\	.	.
.	.	.	.	4A/	.	.	.	.	4cc\	.	.
.	.	.	.	4B\	.	.	.	.	4dd\	.	.
!	!	!	!	!	!	!	!LO:TX:t=P:problem=kreska pseudotaktowa	!	!LO:TX:t=P:problem=kreska pseudotaktowa	!	!
.	.	.	.	1c\	.	.	2A/	-i	[<2ee\	.	.
=25-	=25-	=25-	=25-	=25-	=25-	=25-	=25-	=25-	=25-	=25-	=25-
0ryy	.	.	.	.	.	.	2r	.	2ee\]	.	.
!	!	!	!	!LO:TX:t=P:problem=kreska pseudotaktowa	!	!	!	!	!LO:TX:t=P:problem=kreska pseudotaktowa	!	!
.	.	.	.	2A/	.	.	1e\	A-	2cc\	-gn(us)	.
.	.	.	.	2.G/	.	.	.	.	1.bn\	De-	.
!	!	!	!	!	!	!	!LO:TX:t=P:problem=kreska pseudotaktowa	!	!	!	!
.	.	.	.	.	.	.	[<2d\	.	.	.	.
.	.	.	.	4G/	-i,	.	.	.	.	.	.
=26-	=26-	=26-	=26-	=26-	=26-	=26-	=26-	=26-	=26-	=26-	=26-
!	!	!	!	!	!	!	!LO:N:xstem:cue	!	!	!	!
0ryy	.	.	.	2G/	A-	.	4d\]	.	.	.	.
.	.	.	.	.	.	.	4e\	-gn(us)	.	.	.
!	!	!	!	!LO:TX:t=P:problem=kreska pseudotaktowa	!	!	!	!	!LO:TX:t=P:problem=kreska pseudotaktowa	!	!
.	.	.	.	2A/	-gn(us)	.	2.c/	De-	2cc\	.	.
.	.	.	.	2F/	De-	.	.	.	2a\	.	.
.	.	.	.	.	.	.	4d\	.	.	.	.
!	!	!	!	!LO:TX:t=P:problem=kreska pseudotaktowa	!	!	!LO:TX:t=P:problem=kreska pseudotaktowa	!	!LO:TX:t=P:problem=kreska pseudotaktowa	!	!
.	.	.	.	2E/	-i	.	2B/	.	2g#X/	-i	.
=27-	=27-	=27-	=27-	=27-	=27-	=27-	=27-	=27-	=27-	=27-	=27-
!	!	!	!	!	!	!	!LO:TX:t=P:problem=kreska pseudotaktowa	!	!	!	!
0ryy	.	.	.	2r	.	.	1A/	-i	2r	.	.
.	.	.	.	1c\	A-	.	.	.	1ee\	qui	.
.	.	.	.	.	.	.	2r	.	.	.	.
!	!	!	!	!LO:TX:t=P:problem=kreska pseudotaktowa	!	!	!	!	!LO:TX:t=P:problem=kreska pseudotaktowa	!	!
*	*	*	*	*	*	*	*	*ij	*	*	*
.	.	.	.	[<2Bn\	.	.	1g\	A-	[<2dd\	tol-	.
=28-	=28-	=28-	=28-	=28-	=28-	=28-	=28-	=28-	=28-	=28-	=28-
!	!	!	!	!LO:N:xstem:cue	!	!	!	!	!LO:N:xstem:cue	!	!
0ryy	.	.	.	4Bny\]	.	.	.	.	4dd\]	.	.
.	.	.	.	4c\	.	.	.	.	4ee\	.	.
!	!	!	!	!	!	!	!LO:TX:t=P:problem=kreska pseudotaktowa	!	!	!	!
.	.	.	.	2.A\	.	.	2f\	.	2.cc\	.	.
.	.	.	.	.	.	.	2e\	.	.	.	.
.	.	.	.	4A/	.	.	.	.	4a\	.	.
!	!	!	!	!LO:TX:t=P:problem=kreska pseudotaktowa	!	!	!	!	!LO:TX:t=P:problem=kreska pseudotaktowa	!	!
.	.	.	.	2G#X/	-[gnus]	.	2d\	.	2b\	.	.
=29-	=29-	=29-	=29-	=29-	=29-	=29-	=29-	=29-	=29-	=29-	=29-
0ryy	.	.	.	2A\	De-	.	2c#X\	.	2e/	.	.
!	!	!	!	!	!	!	!LO:TX:t=P:problem=kreska pseudotaktowa	!	!	!	!
.	.	.	.	1d\	.	.	2d\	.	1f/	-lis	.
.	.	.	.	.	.	.	2.A/	-gn(us)	.	.	.
!	!	!	!	!LO:TX:t=P:problem=kreska pseudotaktowa	!	!	!	!	!LO:TX:t=P:problem=kreska pseudotaktowa	!	!
.	.	.	.	2c\	.	.	.	.	2e/	pec-	.
.	.	.	.	.	.	.	4A/	De-	.	.	.
=30-	=30-	=30-	=30-	=30-	=30-	=30-	=30-	=30-	=30-	=30-	=30-
!	!	!	!	!	!	!	!LO:TX:t=P:problem=kreska pseudotaktowa	!	!	!	!
0ryy	.	.	.	2.B-X\	.	.	1d\	-i	4d/	-ca-	.
*	*	*	*	*	*	*	*	*Xij	*	*	*
.	.	.	.	.	.	.	.	.	4e/	.	.
.	.	.	.	.	.	.	.	.	4f/	.	.
!	!	!	!	!	!	!	!	!	!LO:TX:t=P:problem=kreska pseudotaktowa	!	!
!	!	!	!	!	!	!	!	!	!LO:SIC:v:t=custos a	!	!
.	.	.	.	8A/L	.	.	.	.	4gny/	.	.
.	.	.	.	8Gny/J	.	.	.	.	.	.	.
.	.	.	.	4F/	.	.	2r	.	2a,<\	-ta	.
.	.	.	.	4G/	.	.	.	.	.	.	.
!	!	!	!	!	!	!	!LO:TX:t=P:problem=kreska pseudotaktowa	!	!	!	!
*	*	*	*	*	*	*	*	*	*	*ij	*
.	.	.	.	4A/	.	.	2f\	qui	2a\	pec-	.
!	!	!	!	!LO:TX:t=P:problem=kreska pseudotaktowa	!	!	!	!	!	!	!
!	!	!	!	!LO:SIC:v:t=custos c	!	!	!	!	!	!	!
.	.	.	.	4B-/	.	.	.	.	.	.	.
=31-	=31-	=31-	=31-	=31-	=31-	=31-	=31-	=31-	=31-	=31-	=31-
0ryy	.	.	.	2c\	-i	.	2e\	tol-	(2g\	-ca-	.
!	!	!	!	!LO:TX:t=P:problem=kreska pseudotaktowa	!	!	!	!	!	!	!
.	.	.	.	2d\	A-	.	4d\	-lis	2f/)	.	.
.	.	.	.	.	.	.	2d\	pec-	.	.	.
!	!	!	!	!	!	!	!	!	!LO:TX:t=P:problem=kreska pseudotaktowa	!	!
.	.	.	.	2G/	-gn(us)	.	.	.	1e/	-ta	.
*	*	*	*	*	*	*	*	*	*	*Xij	*
.	.	.	.	.	.	.	8c#X/L	.	.	.	.
.	.	.	.	.	.	.	8B/J	.	.	.	.
!	!	!	!	!LO:TX:t=P:problem=kreska pseudotaktowa	!	!	!LO:TX:t=P:problem=kreska pseudotaktowa	!	!	!	!
.	.	.	.	2A\	De-	.	2c#/	.	.	.	.
=32-	=32-	=32-	=32-	=32-	=32-	=32-	=32-	=32-	=32-	=32-	=32-
!	!	!	!	!LO:TX:t=P:problem=kreska pseudotaktowa	!	!	!	!	!	!	!
0ryy	.	.	.	1D/	-i	.	4d\	.	2r	.	.
.	.	.	.	.	.	.	2d\	-ca-	.	.	.
!	!	!	!	!	!	!	!	!	!LO:TX:t=P:problem=kreska pseudotaktowa	!	!
.	.	.	.	.	.	.	.	.	2a\	pec-	.
!	!	!	!	!	!	!	!LO:TX:t=P:problem=kreska pseudotaktowa	!	!	!	!
.	.	.	.	.	.	.	4A/	-ta	.	.	.
!	!	!	!	!LO:TX:t=P:problem=kreska pseudotaktowa	!	!	!	!	!	!	!
.	.	.	.	1r	.	.	2Bny/	mun-	2g\	-ca-	.
.	.	.	.	.	.	.	2.cny/	.	4e,</	-ta	.
.	.	.	.	.	.	.	.	.	2a\	mun-	.
=33-	=33-	=33-	=33-	=33-	=33-	=33-	=33-	=33-	=33-	=33-	=33-
0ryy	.	.	.	2r	.	.	.	.	.	.	.
.	.	.	.	.	.	.	8B/L	.	8g#X\L	.	.
!	!	!	!	!	!	!	!	!	!LO:SIC:v:s=8f#	!	!
.	.	.	.	.	.	.	8A/J	.	8f\J	.	.
!	!	!	!	!LO:TX:t=P:problem=kreska pseudotaktowa	!	!	!LO:TX:t=P:problem=kreska pseudotaktowa	!	!LO:TX:t=P:problem=kreska pseudotaktowa	!	!
.	.	.	.	2E/	qui	.	2B/	.	2g#\	.	.
!	!	!	!	!	!	!	!	!	!LO:TX:t=P:problem=kreska pseudotaktowa	!	!
.	.	.	.	2F/	tol-	.	2A/	-di	1a\	-di	.
.	.	.	.	4D/	.	.	2f\	pec-	.	.	.
.	.	.	.	2d\	.	.	.	.	.	.	.
=34-	=34-	=34-	=34-	=34-	=34-	=34-	=34-	=34-	=34-	=34-	=34-
!	!	!	!	!	!	!	!LO:TX:t=P:problem=kreska pseudotaktowa	!	!	!	!
0ryy	.	.	.	.	.	.	1e\	-ca-	2.a\	mi-	.
.	.	.	.	8c#X\L	.	.	.	.	.	.	.
.	.	.	.	8Bny\J	.	.	.	.	.	.	.
!	!	!	!	!LO:TX:t=P:problem=kreska pseudotaktowa	!	!	!	!	!	!	!
.	.	.	.	2c#X\	.	.	.	.	.	.	.
.	.	.	.	.	.	.	.	.	4g/	-ſe-	.
.	.	.	.	2d\	.	.	2d\	-ta	2f/	-re-	.
.	.	.	.	2.A/	-lis	.	2c#X\	.	1e/	.	.
=35-	=35-	=35-	=35-	=35-	=35-	=35-	=35-	=35-	=35-	=35-	=35-
0ryy	.	.	.	.	.	.	1f\	mun-	.	.	.
.	.	.	.	4A/	pec-	.	.	.	.	.	.
!	!	!	!	!LO:TX:t=P:problem=kreska pseudotaktowa	!	!	!	!	!LO:TX:t=P:problem=kreska pseudotaktowa	!	!
.	.	.	.	2B\	-ca-	.	.	.	2d/	.	.
!	!	!	!	!	!	!	!LO:TX:t=P:problem=kreska pseudotaktowa	!	!LO:TX:t=P:problem=kreska pseudotaktowa	!	!
.	.	.	.	1cny\	.	.	1e\	-di	1g\	.	.
=36-	=36-	=36-	=36-	=36-	=36-	=36-	=36-	=36-	=36-	=36-	=36-
0ryy	.	.	.	2F,</	-ta	.	2r	.	1a\,<	-re	.
!	!	!	!	!LO:TX:t=P:problem=kreska pseudotaktowa	!	!	!LO:TX:t=P:problem=kreska pseudotaktowa	!	!	!	!
.	.	.	.	2F/	pec-	.	2f\	mi-	.	.	.
.	.	.	.	1c\	-ca-	.	1e\	-ſe-	2.g/	no-	.
.	.	.	.	.	.	.	.	.	8f/L	.	.
!	!	!	!	!	!	!	!	!	!LO:TX:t=P:problem=kreska pseudotaktowa	!	!
.	.	.	.	.	.	.	.	.	8e/J	.	.
=37-	=37-	=37-	=37-	=37-	=37-	=37-	=37-	=37-	=37-	=37-	=37-
0ryy	.	.	.	(2d\	-ta	.	2d\	-re-	2f/	.	.
!	!	!	!	!	!	!	!LO:TX:t=P:problem=kreska pseudotaktowa	!	!	!	!
.	.	.	.	2A/)	.	.	2c#X\	-re	2e/	.	.
.	.	.	.	1d\	mun-	.	4d\	[mi-	1f/	.	.
.	.	.	.	.	.	.	4e\	.	.	.	.
.	.	.	.	.	.	.	2.f\	-ſe-	.	.	.
=38-	=38-	=38-	=38-	=38-	=38-	=38-	=38-	=38-	=38-	=38-	=38-
!	!	!	!	!LO:TX:t=P:problem=kreska pseudotaktowa	!	!	!	!	!LO:TX:t=P:problem=kreska pseudotaktowa	!	!
0ryy	.	.	.	1c\	-di,	.	.	.	1g\	-bis	.
.	.	.	.	.	.	.	8e\L	.	.	.	.
.	.	.	.	.	.	.	8d\J	.	.	.	.
!	!	!	!	!	!	!	!LO:TX:t=P:problem=kreska pseudotaktowa	!	!	!	!
.	.	.	.	.	.	.	2e\	-re]-	.	.	.
!	!	!	!	!	!	!	!LO:TX:t=P:problem=kreska pseudotaktowa	!	!	!	!
.	.	.	.	2r	.	.	1f\	-re	2r	.	.
.	.	.	.	2.F/	mi-	.	.	.	2.a\	mi-	.
=39-	=39-	=39-	=39-	=39-	=39-	=39-	=39-	=39-	=39-	=39-	=39-
0ryy	.	.	.	.	.	.	2.f\	no-	.	.	.
.	.	.	.	4G/	-se-	.	.	.	4b\	.	.
!	!	!	!	!LO:TX:t=P:problem=kreska pseudotaktowa	!	!	!	!	!LO:TX:t=P:problem=kreska pseudotaktowa	!	!
.	.	.	.	2A\	-re-	.	.	.	2cc\	-ſe-	.
!	!	!	!	!	!	!	!LO:TX:t=P:problem=kreska pseudotaktowa	!	!	!	!
!	!	!	!	!	!	!	!LO:SIC:v:t=custos d	!	!	!	!
.	.	.	.	.	.	.	4e\	.	.	.	.
.	.	.	.	2B\	.	.	2d\	.	2dd\	-re-	.
!	!	!	!	!LO:TX:t=P:problem=kreska pseudotaktowa	!	!	!	!	!LO:TX:t=P:problem=kreska pseudotaktowa	!	!
!	!	!	!	!LO:SIC:v:t=custos d	!	!	!	!	!LO:SIC:v:t=custos a	!	!
.	.	.	.	2c#X\	.	.	2A/	.	2ee\	-re	.
=40-	=40-	=40-	=40-	=40-	=40-	=40-	=40-	=40-	=40-	=40-	=40-
!	!	!	!	!	!	!	!LO:TX:t=P:problem=kreska pseudotaktowa	!	!	!	!
0ryy	.	.	.	1d\	.	.	1f\	.	4a\	no-	.
.	.	.	.	.	.	.	.	.	8b\L	.	.
.	.	.	.	.	.	.	.	.	8cc\J	.	.
.	.	.	.	.	.	.	.	.	2.dd\	.	.
!	!	!	!	!LO:TX:t=P:problem=kreska pseudotaktowa	!	!	!	!	!	!	!
.	.	.	.	1A\	-re	.	1e\	.	.	.	.
.	.	.	.	.	.	.	.	.	8cc#X\L	.	.
.	.	.	.	.	.	.	.	.	8b\J	.	.
!	!	!	!	!	!	!	!	!	!LO:TX:t=P:problem=kreska pseudotaktowa	!	!
.	.	.	.	.	.	.	.	.	2cc#X\	.	.
=41-	=41-	=41-	=41-	=41-	=41-	=41-	=41-	=41-	=41-	=41-	=41-
!	!	!	!	!	!	!	!LO:TX:t=P:problem=kreska pseudotaktowa	!	!LO:TX:t=P:problem=kreska pseudotaktowa	!	!
0ryy	.	.	.	1B-X\	no-	.	1d\	-bis	1dd\	-bis	.
.	.	.	.	2A/	.	.	2r	.	2r	.	.
!	!	!	!	!LO:TX:t=P:problem=kreska pseudotaktowa	!	!	!LO:TX:t=P:problem=kreska pseudotaktowa	!	!	!	!
.	.	.	.	2F/	.	.	2f\	mi-	2a\	mi-	.
=42-	=42-	=42-	=42-	=42-	=42-	=42-	=42-	=42-	=42-	=42-	=42-
0ryy	.	.	.	2.cny\	.	.	2e\	-se-	2g/	-ſe-	.
!	!	!	!	!	!	!	!LO:TX:t=P:problem=kreska pseudotaktowa	!	!LO:TX:t=P:problem=kreska pseudotaktowa	!	!
.	.	.	.	.	.	.	2A/	-re-	2e/	.	.
.	.	.	.	4Bny\	.	.	.	.	.	.	.
.	.	.	.	2A,<\	-bis	.	2.e\	-re	2.ccny\	-re-	.
!	!	!	!	!LO:TX:t=P:problem=kreska pseudotaktowa	!	!	!	!	!	!	!
.	.	.	.	[<2A\	mi-	.	.	.	.	.	.
!	!	!	!	!	!	!	!LO:TX:t=P:problem=kreska pseudotaktowa	!	!	!	!
.	.	.	.	.	.	.	4d\	.	4b\	.	.
=43-	=43-	=43-	=43-	=43-	=43-	=43-	=43-	=43-	=43-	=43-	=43-
!	!	!	!	!LO:N:xstem:cue	!	!	!	!	!LO:TX:t=P:problem=kreska pseudotaktowa	!	!
0ryy	.	.	.	4A\]	.	.	2cny/	.	1a\	-re	.
.	.	.	.	4G/	-se-	.	.	.	.	.	.
.	.	.	.	4F/	-re-	.	2.f\	no-	.	.	.
!	!	!	!	!LO:TX:t=P:problem=kreska pseudotaktowa	!	!	!	!	!	!	!
.	.	.	.	4E/	-re	.	.	.	.	.	.
.	.	.	.	4D/	no-	.	.	.	2.a\	no-	.
.	.	.	.	4E/	.	.	4e\	.	.	.	.
!	!	!	!	!	!	!	!LO:TX:t=P:problem=kreska pseudotaktowa	!	!	!	!
.	.	.	.	4F/	.	.	[<2d\	.	.	.	.
.	.	.	.	8E/L	.	.	.	.	8g/L	.	.
.	.	.	.	8D/J	.	.	.	.	8f/J	.	.
=44-	=44-	=44-	=44-	=44-	=44-	=44-	=44-	=44-	=44-	=44-	=44-
!	!	!	!	!LO:TX:t=P:problem=kreska pseudotaktowa	!	!	!LO:N:xstem:cue	!	!	!	!
0ryy	.	.	.	1E/	.	.	4d\]	.	1g\	.	.
.	.	.	.	.	.	.	8c#X/L	.	.	.	.
.	.	.	.	.	.	.	8B/J	.	.	.	.
!	!	!	!	!	!	!	!LO:TX:t=P:problem=kreska pseudotaktowa	!	!	!	!
.	.	.	.	.	.	.	2c#/	.	.	.	.
!	!	!	!	!	!	!	!	!	!LO:TX:t=P:problem=kreska pseudotaktowa	!	!
.	.	.	.	2D/	-bis.	.	2d\	-bis	1f#X/	-bis	.
!	!	!	!	!LO:TX:t=P:problem=kreska pseudotaktowa	!	!	!	!	!	!	!
.	.	.	.	[<2d\	mi-	.	4r	.	.	.	.
!	!	!	!	!	!	!	!LO:TX:t=P:problem=kreska pseudotaktowa	!	!	!	!
.	.	.	.	.	.	.	4d\	mi-	.	.	.
=45-	=45-	=45-	=45-	=45-	=45-	=45-	=45-	=45-	=45-	=45-	=45-
0ryy	.	.	.	2.d\]	.	.	2.f\	.	2r	.	.
!	!	!	!	!	!	!	!	!	!LO:TX:t=P:problem=kreska pseudotaktowa	!	!
.	.	.	.	.	.	.	.	.	2a\	mi-	.
!	!	!	!	!LO:TX:t=P:problem=kreska pseudotaktowa	!	!	!LO:TX:t=P:problem=kreska pseudotaktowa	!	!	!	!
.	.	.	.	4d\	-se-	.	4f\	-se-	.	.	.
.	.	.	.	2.c\	-re-	.	2.e\	-re-	2.a\	.	.
!	!	!	!	!	!	!	!	!	!LO:TX:t=P:problem=kreska pseudotaktowa	!	!
.	.	.	.	8B\L	.	.	8d\L	.	4a\	-se-	.
!	!	!	!	!LO:TX:t=P:problem=kreska pseudotaktowa	!	!	!LO:TX:t=P:problem=kreska pseudotaktowa	!	!	!	!
.	.	.	.	8A\J	.	.	8cny\J	.	.	.	.
=46-	=46-	=46-	=46-	=46-	=46-	=46-	=46-	=46-	=46-	=46-	=46-
0ryy	.	.	.	2B\	.	.	2d\	.	2.g/	-re-	.
!	!	!	!	!	!	!	!LO:TX:t=P:problem=kreska pseudotaktowa	!	!	!	!
.	.	.	.	2c#X\	-re	.	2e\	.	.	.	.
.	.	.	.	.	.	.	.	.	8fny/L	.	.
.	.	.	.	.	.	.	.	.	8e/J	.	.
.	.	.	.	2d\	no-	.	2d\	.	2f/	.	.
!	!	!	!	!LO:TX:t=P:problem=kreska pseudotaktowa	!	!	!LO:TX:t=P:problem=kreska pseudotaktowa	!	!LO:TX:t=P:problem=kreska pseudotaktowa	!	!
.	.	.	.	2e\	.	.	2c#X/	-re	2e,</	-re	.
=47-	=47-	=47-	=47-	=47-	=47-	=47-	=47-	=47-	=47-	=47-	=47-
*	*	*	*	*	*	*	*	*	*	*ij	*
0ryy	.	.	.	2f\	.	.	(2d\	no-	2.a\	mi-	.
.	.	.	.	2F/	-bis	.	2f\)	.	.	.	.
!	!	!	!	!	!	!	!	!	!LO:TX:t=P:problem=kreska pseudotaktowa	!	!
.	.	.	.	.	.	.	.	.	4a\	-se-	.
.	.	.	.	2.cny\	mi-	.	2.e\	.	2g\	-re-	.
!	!	!	!	!	!	!	!	!	!LO:TX:t=P:problem=kreska pseudotaktowa	!	!
.	.	.	.	.	.	.	.	.	2cc\	-re	.
*	*	*	*	*	*	*	*	*	*	*Xij	*
!	!	!	!	!LO:TX:t=P:problem=kreska pseudotaktowa	!	!	!	!	!	!	!
.	.	.	.	4c\	-ſe-	.	4e\	.	.	.	.
=48-	=48-	=48-	=48-	=48-	=48-	=48-	=48-	=48-	=48-	=48-	=48-
!	!	!	!	!LO:TX:t=P:problem=kreska pseudotaktowa	!	!	!	!	!	!	!
!	!	!	!	!LO:SIC:v:t=custos d	!	!	!LO:TX:t=P:problem=kreska pseudotaktowa	!	!	!	!
0ryy	.	.	.	1G/	-re-	.	1d\	-bis	2.b\	mi-	.
!	!	!	!	!	!	!	!	!	!LO:TX:t=P:problem=kreska pseudotaktowa	!	!
.	.	.	.	.	.	.	.	.	4b\	-ſe-	.
.	.	.	.	2.d\	.	.	2.f\	mi-	2a\	-re-	.
!	!	!	!	!	!	!	!	!	!LO:TX:t=P:problem=kreska pseudotaktowa	!	!
!	!	!	!	!	!	!	!	!	!LO:SIC:v:t=custos a	!	!
.	.	.	.	.	.	.	.	.	[<2a\	-re	.
.	.	.	.	4c\	-re	.	4e\	-ſe-	.	.	.
=49-	=49-	=49-	=49-	=49-	=49-	=49-	=49-	=49-	=49-	=49-	=49-
!	!	!	!	!	!	!	!	!	!LO:N:xstem:cue	!	!
!	!	!	!	!	!	!	!	!	!LO:TX:t=P:problem=brak zakonczenia ligatury	!	!
0ryy	.	.	.	2c\	no-	.	2e\	-re-	4a\]	.	.
.	.	.	.	.	.	.	.	.	4g\	.	.
!	!	!	!	!LO:TX:t=P:problem=kreska pseudotaktowa	!	!	!LO:TX:t=P:problem=kreska pseudotaktowa	!	!LO:TX:t=P:problem=kreska pseudotaktowa	!	!
.	.	.	.	2B\	.	.	2d\	-re	[<2g/	.	.
!	!	!	!	!	!	!	!	!	!LO:N:xstem:cue	!	!
.	.	.	.	1c\	-bis	.	2e\	no-	4g/]	.	.
.	.	.	.	.	.	.	.	.	4f/	.	.
!	!	!	!	!	!	!	!	!	!LO:TX:t=P:problem=kreska pseudotaktowa	!	!
.	.	.	.	.	.	.	2cny/	.	2e/	.	.
=50-	=50-	=50-	=50-	=50-	=50-	=50-	=50-	=50-	=50-	=50-	=50-
0ryy	.	.	.	2G/	mi-	.	2B/	.	2d/	no-	.
!	!	!	!	!LO:TX:t=P:problem=kreska pseudotaktowa	!	!	!	!	!	!	!
.	.	.	.	2A/	-ſe-	.	1A/	.	4c/	-bis	.
!	!	!	!	!	!	!	!	!	!LO:TX:t=P:problem=kreska pseudotaktowa	!	!
.	.	.	.	.	.	.	.	.	[<4cc\	mi-	.
.	.	.	.	2.E/	-re-	.	.	.	4cc\]	.	.
.	.	.	.	.	.	.	.	.	8b\L	.	.
.	.	.	.	.	.	.	.	.	8a\J	.	.
!	!	!	!	!	!	!	!LO:TX:t=P:problem=kreska pseudotaktowa	!	!	!	!
.	.	.	.	.	.	.	2G#X/	.	4.b\	.	.
.	.	.	.	4E/	-re	.	.	.	.	.	.
!	!	!	!	!	!	!	!	!	!LO:TX:t=P:problem=kreska pseudotaktowa	!	!
.	.	.	.	.	.	.	.	.	8b\	-se-	.
=51-	=51-	=51-	=51-	=51-	=51-	=51-	=51-	=51-	=51-	=51-	=51-
0ryy	.	.	.	2A\	no-	.	2A/	.	2a\	-re-	.
.	.	.	.	1A\	.	.	2.e\	.	1cc\	-re	.
.	.	.	.	.	.	.	4c/	.	.	.	.
!	!	!	!	!LO:TX:t=P:problem=kreska pseudotaktowa	!	!	!	!	!LO:TX:t=P:problem=kreska pseudotaktowa	!	!
.	.	.	.	2F/	.	.	1f\	.	2a\	no-	.
=52-	=52-	=52-	=52-	=52-	=52-	=52-	=52-	=52-	=52-	=52-	=52-
0ryy	.	.	.	1c\	.	.	.	.	1.g\	.	.
!	!	!	!	!	!	!	!LO:TX:t=P:problem=kreska pseudotaktowa	!	!	!	!
.	.	.	.	.	.	.	2e\	.	.	.	.
.	.	.	.	2B\	.	.	2d\	-bis	.	.	.
!	!	!	!	!LO:TX:t=P:problem=kreska pseudotaktowa	!	!	!	!	!	!	!
.	.	.	.	2c\	.	.	2.g\	mi-	2e/	.	.
=53-	=53-	=53-	=53-	=53-	=53-	=53-	=53-	=53-	=53-	=53-	=53-
!	!	!	!	!	!	!	!	!	!LO:TX:t=P:problem=kreska pseudotaktowa	!	!
0ryy	.	.	.	2.d\	.	.	.	.	[<1a\	.	.
.	.	.	.	.	.	.	4f\	-se-	.	.	.
.	.	.	.	.	.	.	4f\	-re-	.	.	.
.	.	.	.	8c\L	.	.	8e\L	.	.	.	.
!	!	!	!	!	!	!	!LO:TX:t=P:problem=kreska pseudotaktowa	!	!	!	!
.	.	.	.	8B-X\J	.	.	8d\J	.	.	.	.
!	!	!	!	!	!	!	!	!	!LO:N:xstem:cue:vis=4	!	!
.	.	.	.	2A\	.	.	2c#X\	.	2a\]	.	.
!	!	!	!	!LO:TX:t=P:problem=kreska pseudotaktowa	!	!	!	!	!	!	!
.	.	.	.	2B-X\	.	.	2d\	-re	1g/	.	.
=54-	=54-	=54-	=54-	=54-	=54-	=54-	=54-	=54-	=54-	=54-	=54-
0ryy	.	.	.	0A\	.	.	4e\	no-	.	.	.
.	.	.	.	.	.	.	4d\	.	.	.	.
!	!	!	!	!	!	!	!	!	!LO:TX:t=P:problem=kreska pseudotaktowa	!	!
.	.	.	.	.	.	.	2.d\	.	2f/	.	.
.	.	.	.	.	.	.	.	.	1e/	.	.
.	.	.	.	.	.	.	8c#X/L	.	.	.	.
.	.	.	.	.	.	.	8B/J	.	.	.	.
.	.	.	.	.	.	.	2c#\	.	.	.	.
=55-	=55-	=55-	=55-	=55-	=55-	=55-	=55-	=55-	=55-	=55-	=55-
!LO:TX:b:i:t=Oad M. D. Gm.	!	!	!	!LO:TX:b:i:t=O ad M. D. Gm.	!	!	!LO:TX:b:i:t=O. ad M. D. Gm.	!	!LO:TX:b:i:t=O ad M. D. Gm.	!	!
!LO:TX:b:t=Agnus 3tium ut Supra	!	!	!	!LO:TX:b:t=Agn(us) 3tium ut 1mum.	!	!	!LO:TX:b:t=Agn(us) 3tium ut 1mum	!	!LO:TX:b:t=Agn(us) 3tium ut 1mum	!	!
0ryy	.	.	.	0D/;	-bis.	.	0d\;	-bis.	0f#X/;	-bis.	.
==	==	==	==	==	==	==	==	==	==	==	==
*-	*-	*-	*-	*-	*-	*-	*-	*-	*-	*-	*-
!!!RDF**kern: > = above
!!!RDF**kern: < = below
!!!system-decoration: [(s1,s2,s3,s4)]
!!!EED: Andrzej Borzym
!!!EST: 2021-03-15
!!!AIN: 1 alto 1 bass 1 soprn 1 tenor
!!!ENC: Andrzej Borzym
!!!END: 2021-02-25
